!!!SOCIAL_FUNCTION:	bird dance songs
!!!PDT:	1956
!!!OTL: No_136_Whooping_Crane_Dance_Song_(d).krn
!!!LANG: Non-Tone
!!!LING_GROUP: Muskogean
!!!REG: Florida
**kern
*staff1
=1-
=
*clefF4
*k[f#c#g#d#]
*M3/4
8c#\L
16e\L
16e\JJ
8e\L
8e\J
8B\L
16e\L
16e\JJ
=2||
*M2/4
16B\LL
16B\J
8B\J
8B\L
(16G#\L
16F#\JJ)
=3
16G#\LL
16F#\
16E\
16E\JJ
8E\L
8B\J
=4||
*M3/4
24G#\LL
24F#\
24E\JJ
24G#\LL
24F#\
24E\JJ
16E\LL
16E\J
8E\J
8BB/L
8E/J
=5||
*M2/4
16E\LL
16E\
16E\
16E\JJ
8E\L
8B\J
=6||
*M3/4
24G#\LL
24F#\
24E\JJ
24G#\LL
24F#\
24E\JJ
16E\LL
16E\J
8E\J
16E\LL
16E\J
8E\J
==:|!
*-
